T: Christmas
M: 4/4
L: 1/8
K: Gmaj
|: D/E/F |G2 D2 A2 D2 | cd/c/ BA G2 AB | c2 BA B2 AG | A2 F2 D2 dc |
B2 G2 D4 | EF GE c2 BA | B2 AG D2 F2 | G2- G2- G2 :|
|: Bc |d2 B2 G2 ed | c2 A2 F2 dc | B2 AG cB AG | FG EF D2 D/E/F |
G2 D2 AD dB | cB AG d2- dB | cB AG D2 F2 | G2- G2- G2 :|
